src/assets/icons/facebook.svg

<svg width="32" height="32" viewBox="0 0 32 32" fill="none" xmlns="http://www.w3.org/2000/svg">
<path d="M32 16C32 7.1625 24.8375 0 16 0C7.1625 0 0 7.1625 0 16C0 23.9875 5.85 30.6062 13.5 31.8062V20.625H9.4375V16H13.5V12.475C13.5 8.46563 15.8875 6.25 19.5438 6.25C21.2938 6.25 23.125 6.5625 23.125 6.5625V10.5H21.1063C19.1188 10.5 18.5 11.7344 18.5 13V16H22.9375L22.2281 20.625H18.5V31.8062C26.15 30.6062 32 23.9875 32 16Z" fill="#0EC261"/>
</svg>

<svg width="32" height="32" fill="none" class="facebook" xmlns="http://www.w3.org/2000/svg">
<path d="M32 16c0-8.838-7.163-16-16-16C7.162 0 0 7.162 0 16c0 7.988 5.85 14.606 13.5 15.806V20.625H9.437V16H13.5v-3.525c0-4.01 2.387-6.225 6.044-6.225 1.75 0 3.581.313 3.581.313V10.5h-2.019c-1.987 0-2.606 1.234-2.606 2.5v3h4.438l-.71 4.625H18.5v11.181C26.15 30.606 32 23.987 32 16Z" fill="#fff"/></svg>
